icons/editor-line-height-filled.svg

<svg width="25" height="24" viewBox="0 0 25 24" fill="none" xmlns="http://www.w3.org/2000/svg">
<g id="line-height">
<path id="Icon" d="M3.5 8.38824L6.88823 5M6.88823 5L10.2765 8.38824M6.88823 5V20.8118M3.5 17.4235L6.88823 20.8118M6.88823 20.8118L10.2765 17.4235M14.7941 6.12941H22.7M14.7941 15.1647H22.7M14.7941 19.6824H22.7M14.7941 10.6471H22.7" stroke="black" stroke-width="2" stroke-linecap="round" stroke-linejoin="round"/>
</g>
</svg>

<svg xmlns="http://www.w3.org/2000/svg" width="25" height="24" fill="none" viewBox="0 0 25 24"><path stroke="currentColor" stroke-linecap="round" stroke-linejoin="round" stroke-width="2" d="M3.5 8.388 6.888 5m0 0 3.389 3.388M6.888 5v15.812M3.5 17.423l3.388 3.389m0 0 3.389-3.389M14.794 6.13H22.7m-7.906 9.036H22.7m-7.906 4.517H22.7m-7.906-9.035H22.7"/></svg>
